meshus/thailand_binx.svg

<svg width="400px" height="400px"><g id="delaunay"><path d="M236.33148047815504,207.35865883710503L164.69652975339775,11.404582337745467L187.71620106049284,37.984171006996434Z"></path><path d="M236.33148047815504,207.35865883710503L187.71620106049284,37.984171006996434L214.6513754102605,0.022760159584493067Z"></path><path d="M187.71620106049284,37.984171006996434L164.69652975339775,11.404582337745467L214.6513754102605,0.022760159584493067Z"></path><path d="M168.0755142868125,399.9859406258601L163.67644275303775,372.47989200621583L185.112226375207,394.2778445695758Z"></path><path d="M185.112226375207,394.2778445695758L163.67644275303775,372.47989200621583L236.33148047815504,207.35865883710503Z"></path><path d="M163.67644275303775,372.47989200621583L164.69652975339775,11.404582337745467L236.33148047815504,207.35865883710503Z"></path></g></svg>

<?xml version="1.0" encoding="utf-8"?>
<!-- Generator: Adobe Illustrator 15.0.0, SVG Export Plug-In . SVG Version: 6.00 Build 0)  -->
<!DOCTYPE svg PUBLIC "-//W3C//DTD SVG 1.1//EN" "http://www.w3.org/Graphics/SVG/1.1/DTD/svg11.dtd">
<svg version="1.1" id="Layer_1" xmlns="http://www.w3.org/2000/svg" xmlns:xlink="http://www.w3.org/1999/xlink" x="0px" y="0px"
	 width="400px" height="400px" viewBox="0 0 400 400" enable-background="new 0 0 400 400" xml:space="preserve">
<g id="delaunay">
	<path fill="none" stroke="#000000" stroke-miterlimit="10" d="M236.332,207.359L164.696,11.405l23.02,26.58L236.332,207.359z"/>
	<path fill="none" stroke="#000000" stroke-miterlimit="10" d="M236.332,207.359L187.716,37.984l26.935-37.961L236.332,207.359z"/>
	<path fill="none" stroke="#000000" stroke-miterlimit="10" d="M187.716,37.984l-23.02-26.58l49.955-11.382L187.716,37.984z"/>
	<path fill="none" stroke="#000000" stroke-miterlimit="10" d="M168.076,399.986l-4.399-27.506l21.436,21.797L168.076,399.986z"/>
	<path fill="none" stroke="#000000" stroke-miterlimit="10" d="M185.112,394.277l-21.436-21.797l72.656-165.121L185.112,394.277z"/>
	<path fill="none" stroke="#000000" stroke-miterlimit="10" d="M163.676,372.48l1.02-361.076l71.636,195.955L163.676,372.48z"/>
</g>
</svg>
